actions/16/media-playback-pause.svg

<?xml version="1.0" encoding="UTF-8" standalone="no"?>
<svg
   xmlns:dc="http://purl.org/dc/elements/1.1/"
   xmlns:cc="http://creativecommons.org/ns#"
   xmlns:rdf="http://www.w3.org/1999/02/22-rdf-syntax-ns#"
   xmlns:svg="http://www.w3.org/2000/svg"
   xmlns="http://www.w3.org/2000/svg"
   xmlns:xlink="http://www.w3.org/1999/xlink"
   version="1.1"
   width="16"
   height="16"
   id="svg3792">
  <defs
     id="defs3794">
    <radialGradient
       cx="21.385109"
       cy="-19.005346"
       r="19.99999"
       fx="21.385109"
       fy="-19.005346"
       id="radialGradient3008"
       xlink:href="#linearGradient2867-449-88-871-390-598-476-591-434-148-57-177-641-289-620-227-114-444-680-744-4"
       gradientUnits="userSpaceOnUse"
       gradientTransform="matrix(0,1.5000006,-1.5241254,0,-16.959842,-23.077676)" />
    <linearGradient
       id="linearGradient2867-449-88-871-390-598-476-591-434-148-57-177-641-289-620-227-114-444-680-744-4">
      <stop
         id="stop5430-5"
         style="stop-color:#737373;stop-opacity:1"
         offset="0" />
      <stop
         id="stop5432-2"
         style="stop-color:#636363;stop-opacity:1"
         offset="0.26238" />
      <stop
         id="stop5434-9"
         style="stop-color:#4b4b4b;stop-opacity:1"
         offset="0.704952" />
      <stop
         id="stop5436-2"
         style="stop-color:#3f3f3f;stop-opacity:1"
         offset="1" />
    </linearGradient>
    <radialGradient
       cx="21.385109"
       cy="-19.005346"
       r="19.99999"
       fx="21.385109"
       fy="-19.005346"
       id="radialGradient3015"
       xlink:href="#linearGradient2867-449-88-871-390-598-476-591-434-148-57-177-641-289-620-227-114-444-680-744-4"
       gradientUnits="userSpaceOnUse"
       gradientTransform="matrix(0,0.99994569,-1.0668483,0,-12.27098,-20.383277)" />
  </defs>
  <metadata
     id="metadata3797">
    <rdf:RDF>
      <cc:Work
         rdf:about="">
        <dc:format>image/svg+xml</dc:format>
        <dc:type
           rdf:resource="http://purl.org/dc/dcmitype/StillImage" />
        <dc:title />
      </cc:Work>
    </rdf:RDF>
  </metadata>
  <path
     d="M 1.2629078,1.0006699 C 1.1088193,1.0352273 0.99210754,1.1834303 1.0004175,1.333985 l 0,13.332604 c -0.00484,0.17574 0.1654562,0.337923 0.3499871,0.333315 l 5.2996019,0 c 0.1845309,0.0046 0.354826,-0.157575 0.349987,-0.333315 l 0,-13.332604 C 7.0048235,1.1582445 6.8345374,0.99606166 6.6500065,1.0006699 l -5.2996019,0 c -0.014563,-8.9324e-4 -0.029185,-8.9324e-4 -0.043748,0 -0.014563,-8.9324e-4 -0.029185,-8.9324e-4 -0.043749,0 z m 7.9995887,0 c -0.154088,0.034557 -0.2708,0.1827604 -0.26249,0.3333151 l 0,13.332604 c -0.0048,0.17574 0.165456,0.337923 0.349987,0.333315 l 5.2999195,0 c 0.18453,0.0046 0.354826,-0.157575 0.349987,-0.333315 l 0,-13.332604 C 15.0047,1.1582445 14.834443,0.99606166 14.649913,1.0006699 l -5.2999195,0 c -0.01456,-8.9324e-4 -0.02919,-8.9324e-4 -0.04375,0 -0.01456,-8.9324e-4 -0.02919,-8.9324e-4 -0.043747,0 z"
     id="path3797"
     style="color:#000000;fill:url(#radialGradient3015);fill-opacity:1;fill-rule:nonzero;stroke:none;stroke-width:1;marker:none;visibility:visible;display:inline;overflow:visible;enable-background:accumulate" />
  <path
     d="m 1.5018271,1.5018272 0,12.9963458 4.9981729,0 0,-12.9963458 z m 7.9981729,0 0,12.9963458 4.998173,0 0,-12.9963458 z"
     id="path2645"
     style="opacity:0.1;color:#000000;fill:none;stroke:#000000;stroke-width:1.00365424;stroke-linecap:round;stroke-linejoin:round;stroke-miterlimit:4;stroke-opacity:1;stroke-dasharray:none;stroke-dashoffset:0;marker:none;visibility:visible;display:inline;overflow:visible;enable-background:accumulate" />
  <path
     d="m 10.5,2.4971395 0,11.0057225 3.002861,-0.01304 0,-10.9926839 z m -8.0028616,-7e-7 0,11.0057232 L 5.5,13.489822 5.5,2.4971387 z"
     id="path2647"
     style="opacity:0.02999998;fill:none;stroke:#000000;stroke-width:0.99427682;stroke-linecap:round;stroke-linejoin:miter;stroke-miterlimit:4;stroke-opacity:1;stroke-dasharray:none;stroke-dashoffset:0;marker:none;visibility:visible;display:inline;overflow:visible" />
</svg>

<svg xmlns="http://www.w3.org/2000/svg" xmlns:xlink="http://www.w3.org/1999/xlink" viewBox="0 0 16 16"><defs><linearGradient id="a"><stop offset="0" stop-color="#737373"/><stop offset=".262" stop-color="#636363"/><stop offset=".705" stop-color="#4b4b4b"/><stop offset="1" stop-color="#3f3f3f"/></linearGradient><radialGradient cx="21.385" cy="-19.005" r="20" fx="21.385" fy="-19.005" id="b" xlink:href="#a" gradientUnits="userSpaceOnUse" gradientTransform="matrix(0 .99995 -1.06685 0 -12.27 -20.383)"/></defs><path d="M1.263 1A.338.338 0 0 0 1 1.335v13.333c-.004.175.166.338.35.333h5.3c.185.006.355-.157.35-.332V1.334c.005-.176-.165-.338-.35-.333H1.263zm8 0A.338.338 0 0 0 9 1.335v13.333c-.005.175.165.338.35.333h5.3c.184.006.355-.157.35-.332V1.334c.005-.176-.166-.338-.35-.333H9.262z" color="#000" fill="url(#b)" overflow="visible"/><path d="M1.502 1.502v12.996H6.5V1.502zm7.998 0v12.996h4.998V1.502z" opacity=".1" color="#000" fill="none" stroke="#000" stroke-width="1.004" stroke-linecap="round" stroke-linejoin="round" overflow="visible"/><path d="M10.5 2.497v11.006l3.003-.013V2.497zm-8.003 0v11.006L5.5 13.49V2.497z" opacity=".03" fill="none" stroke="#000" stroke-width=".994" stroke-linecap="round" overflow="visible"/></svg>
